X: 1849
T: Arianna's Tower
R: reel
M: 4/4
K: Adorian
|:e2AB cBAB|E3D EFGE|Aeed e2 dc|B3A GABG|
eA A2 cBAB|E3D EFGE|AEcE BAGB|A2AG ABcd:|
|:eaag edcd|eggf g3e|aece ABcA|Bgge d2cd|
e2ag edcd|B2gf g3^g|aecA =f2 ed|cAAG ABcd:|

